X:1
T: The Fir Tree
C:
R:Strathspey
Q: 128
K:D
M:4/4
L:1/16
|:A2|F4 D2Bc d3A =c3G|E4 =C3E =c3G EA3|F4 D2Bc d3A B3A|F4 D2Bc dcBA d3A|
F4 D2Bc d3A =c3G|E4 =C3E =c3G E3G|D3E F3G Ad3 A3F|GE3 A3G F2D2 D2f2|
ddd2 f3d g3e f3d|eee2 f3d g3e =c2e2|ddd2 f3d g3e f3d|eee2 a3f g3d df3|
ddd2 f3d g3e f3d|eee2 f3d g3e =c2e2|d3e f3g a3b a3f|g3e agfe f2d2 d2:|
